src/dsmComponents/Icons/tick-box-24px.svg

<?xml version="1.0" encoding="UTF-8"?>
<svg width="22px" height="22px" viewBox="0 0 22 22" version="1.1" xmlns="http://www.w3.org/2000/svg" xmlns:xlink="http://www.w3.org/1999/xlink">
    <!-- Generator: Sketch 59.1 (86144) - https://sketch.com -->
    <title>tick-box-24px</title>
    <desc>Created with Sketch.</desc>
    <defs>
        <path d="M0,1 C0,0.44771525 0.44771525,0 1,0 L21,0 C21.5522847,0 22,0.44771525 22,1 L22,21 C22,21.5522847 21.5522847,22 21,22 L1,22 C0.44771525,22 0,21.5522847 0,21 L0,1 Z M2,2 L2,20 L20,20 L20,2 L2,2 Z" id="path-1"></path>
    </defs>
    <g id="Final" stroke="none" stroke-width="1" fill="none" fill-rule="evenodd">
        <g id="All-Nucleo-Icons" transform="translate(-609.000000, -6682.000000)">
            <g id="Solo/Nucleo/24px/tick-box" transform="translate(608.000000, 6681.000000)">
                <g id="shape-rectangle" transform="translate(1.000000, 1.000000)">
                    <g id="Colour/Default-Colour">
                        <mask id="mask-2" fill="white">
                            <use xlink:href="#path-1"></use>
                        </mask>
                        <use id="Mask" fill="#000000" fill-rule="nonzero" xlink:href="#path-1"></use>
                        <g id="colour/neutral/chia" mask="url(#mask-2)" fill="#737373">
                            <g transform="translate(-21.000000, -22.000000)" id="Colour">
                                <rect x="0" y="0" width="64" height="64"></rect>
                            </g>
                        </g>
                    </g>
                </g>
            </g>
        </g>
    </g>
</svg>

<svg width="22" height="22" xmlns="http://www.w3.org/2000/svg" xmlns:xlink="http://www.w3.org/1999/xlink"><defs><path d="M0 1a1 1 0 011-1h20a1 1 0 011 1v20a1 1 0 01-1 1H1a1 1 0 01-1-1V1zm2 1v18h18V2H2z" id="tick-box-24px_svg__a"/></defs><use fill="#737373" xlink:href="#tick-box-24px_svg__a" fill-rule="evenodd"/></svg>
